picto/tracks-12-it-large.svg

<svg class="color-immutable" width="24" height="24" viewBox="0 0 24 24" fill="none" xmlns="http://www.w3.org/2000/svg"><path d="M0 22.5V1.5C0 0.675 0.675 0 1.5 0H22.5C23.325 0 24 0.675 24 1.5V22.5C24 23.325 23.325 24 22.5 24H1.5C0.675 24 0 23.325 0 22.5Z" fill="#2D327D"/><path d="M8.82499 7.508V21H6.13099V12.168H5.17099H4.21099H3.27899H2.95599V10.212C3.61399 10.194 4.15099 10.126 4.56599 10.009C4.98099 9.892 5.36099 9.701 5.70599 9.437C6.20499 9.055 6.53999 8.412 6.71199 7.508H8.82499Z" fill="white"/><path d="M21.044 18.601V21H11.326C11.326 20.268 11.444 19.57 11.681 18.905C11.918 18.241 12.252 17.668 12.682 17.188C13.014 16.819 13.403 16.459 13.849 16.108C14.295 15.757 15.183 15.114 16.511 14.179C17.157 13.73 17.609 13.312 17.868 12.924C18.127 12.536 18.256 12.087 18.256 11.577C18.256 10.986 18.082 10.508 17.735 10.142C17.387 9.776 16.931 9.593 16.365 9.593C14.974 9.593 14.258 10.593 14.215 12.592H11.622C11.622 12.463 11.622 12.365 11.622 12.297C11.622 10.661 12.08 9.393 12.997 8.495C13.889 7.621 15.043 7.185 16.458 7.185C17.713 7.185 18.762 7.542 19.605 8.256C20.522 9.031 20.98 10.074 20.98 11.384C20.98 12.528 20.614 13.513 19.882 14.337C19.642 14.608 19.417 14.825 19.208 14.988C18.999 15.151 18.448 15.543 17.556 16.165C16.707 16.756 16.099 17.208 15.733 17.522C15.367 17.836 15.027 18.196 14.713 18.602H21.044V18.601Z" fill="white"/><path d="M3.00099 3H4.01299C4.22999 3 4.39199 3.027 4.49899 3.082C4.59899 3.133 4.67499 3.208 4.72699 3.305C4.76999 3.387 4.79099 3.474 4.79099 3.566C4.79099 3.669 4.76499 3.76 4.71299 3.84C4.65999 3.92 4.58399 3.983 4.48499 4.029C4.57099 4.058 4.63599 4.088 4.67899 4.12C4.82499 4.227 4.89699 4.382 4.89699 4.586C4.89699 4.707 4.86999 4.816 4.81599 4.912C4.76199 5.008 4.68499 5.086 4.58499 5.144C4.46599 5.214 4.30599 5.249 4.10399 5.249H3.00099V3ZM3.49099 3.386V3.91H3.93999C4.04499 3.91 4.12099 3.898 4.17099 3.873C4.26199 3.829 4.30799 3.753 4.30799 3.645C4.30799 3.554 4.27899 3.488 4.22199 3.447C4.16499 3.407 4.07099 3.386 3.93999 3.386H3.49099ZM3.49099 4.246V4.863H3.98799C4.13099 4.863 4.23099 4.843 4.28799 4.803C4.36399 4.749 4.40199 4.666 4.40199 4.555C4.40199 4.423 4.35099 4.332 4.24799 4.284C4.19199 4.259 4.09699 4.246 3.96399 4.246H3.49099Z" fill="white"/><path d="M5.63699 3V3.401H5.19099V3H5.63699ZM5.63699 3.572V5.249H5.19099V3.572H5.63699Z" fill="white"/><path d="M6.41699 3.574V3.809C6.46899 3.737 6.51799 3.684 6.56299 3.651C6.67399 3.565 6.80699 3.522 6.96299 3.522C7.09999 3.522 7.21699 3.557 7.31199 3.627C7.38799 3.682 7.44099 3.752 7.47099 3.837C7.50099 3.922 7.51599 4.041 7.51599 4.195V5.25H7.07199V4.287C7.07199 4.179 7.06299 4.1 7.04399 4.05C7.02699 4.006 6.99699 3.972 6.95499 3.946C6.90699 3.918 6.85199 3.904 6.79099 3.904C6.72299 3.904 6.66199 3.92 6.60599 3.953C6.55099 3.986 6.50999 4.031 6.48299 4.087C6.45299 4.151 6.43799 4.25 6.43799 4.384V5.248H5.99199V3.574H6.41699Z" fill="white"/><path d="M9.379 5.249H8.924C8.904 5.183 8.895 5.127 8.895 5.081C8.756 5.224 8.576 5.295 8.355 5.295C8.183 5.295 8.048 5.255 7.952 5.175C7.841 5.083 7.786 4.954 7.786 4.789C7.786 4.579 7.881 4.433 8.071 4.352C8.148 4.319 8.289 4.289 8.496 4.261C8.673 4.237 8.784 4.215 8.827 4.193C8.87 4.171 8.892 4.126 8.892 4.06C8.892 3.913 8.795 3.84 8.6 3.84C8.496 3.84 8.421 3.858 8.373 3.895C8.325 3.932 8.293 3.996 8.278 4.087H7.856C7.87 3.901 7.94 3.76 8.067 3.665C8.194 3.57 8.375 3.523 8.61 3.523C8.869 3.523 9.061 3.576 9.185 3.681C9.243 3.731 9.281 3.783 9.3 3.84C9.319 3.896 9.328 3.986 9.328 4.108C9.328 4.134 9.326 4.246 9.323 4.446C9.322 4.648 9.321 4.764 9.321 4.793C9.321 4.915 9.325 5.004 9.332 5.061C9.339 5.119 9.355 5.181 9.379 5.249ZM8.889 4.438C8.831 4.474 8.726 4.502 8.575 4.523C8.468 4.539 8.391 4.56 8.344 4.586C8.277 4.622 8.244 4.683 8.244 4.769C8.244 4.839 8.266 4.893 8.31 4.932C8.354 4.971 8.416 4.99 8.495 4.99C8.626 4.99 8.732 4.944 8.813 4.852C8.842 4.82 8.862 4.787 8.872 4.753C8.883 4.719 8.888 4.673 8.888 4.617V4.438H8.889Z" fill="white"/><path d="M10.716 3.541V3.973C10.644 3.96 10.586 3.953 10.542 3.953C10.376 3.953 10.254 4.023 10.176 4.162C10.132 4.24 10.11 4.37 10.11 4.553V5.248H9.66399V3.568H10.089V3.874C10.21 3.646 10.386 3.533 10.617 3.533C10.644 3.534 10.678 3.536 10.716 3.541Z" fill="white"/><path d="M11.373 3V3.401H10.927V3H11.373ZM11.373 3.572V5.249H10.927V3.572H11.373Z" fill="white"/><path d="M12.534 3.523C12.778 3.523 12.977 3.604 13.132 3.766C13.285 3.926 13.361 4.139 13.361 4.406C13.361 4.682 13.279 4.902 13.116 5.066C12.963 5.219 12.764 5.295 12.519 5.295C12.258 5.295 12.049 5.21 11.895 5.04C11.747 4.878 11.674 4.668 11.674 4.409C11.674 4.155 11.746 3.948 11.889 3.789C12.048 3.612 12.263 3.523 12.534 3.523ZM12.511 3.871C12.393 3.871 12.299 3.919 12.23 4.014C12.159 4.11 12.124 4.242 12.124 4.409C12.124 4.582 12.159 4.715 12.229 4.807C12.301 4.9 12.399 4.947 12.523 4.947C12.639 4.947 12.731 4.904 12.798 4.819C12.875 4.725 12.913 4.588 12.913 4.408C12.913 4.24 12.879 4.109 12.811 4.016C12.74 3.919 12.64 3.871 12.511 3.871Z" fill="white"/></svg>

<svg class="color-immutable" width="24" height="24" viewBox="0 0 24 24" fill="none" xmlns="http://www.w3.org/2000/svg"><g clip-path="url(#a)"><path d="M0 22.5v-21C0 .675.675 0 1.5 0h21c.825 0 1.5.675 1.5 1.5v21c0 .825-.675 1.5-1.5 1.5h-21C.675 24 0 23.325 0 22.5Z" fill="#2D327D"/><path d="M8.825 7.508V21H6.131v-8.832H2.956v-1.956c.658-.018 1.195-.086 1.61-.203a3.362 3.362 0 0 0 1.14-.572c.499-.382.834-1.025 1.006-1.929h2.113ZM21.044 18.601V21h-9.718c0-.732.118-1.43.355-2.095a5.122 5.122 0 0 1 1.001-1.717 9.304 9.304 0 0 1 1.167-1.08c.446-.351 1.334-.994 2.662-1.929.646-.449 1.098-.867 1.357-1.255.259-.388.388-.837.388-1.347 0-.591-.174-1.069-.521-1.435-.348-.366-.804-.549-1.37-.549-1.391 0-2.107 1-2.15 2.999h-2.593v-.295c0-1.636.458-2.904 1.375-3.802.892-.874 2.046-1.31 3.461-1.31 1.255 0 2.304.357 3.147 1.071.917.775 1.375 1.818 1.375 3.128 0 1.144-.366 2.129-1.098 2.953-.24.271-.465.488-.674.651-.209.163-.76.555-1.652 1.177-.849.591-1.457 1.043-1.823 1.357a7.302 7.302 0 0 0-1.02 1.08h6.331v-.001ZM3.001 3h1.012c.217 0 .379.027.486.082.1.051.176.126.228.223a.554.554 0 0 1 .064.261.49.49 0 0 1-.306.463.721.721 0 0 1 .194.091c.146.107.218.262.218.466 0 .121-.027.23-.081.326a.612.612 0 0 1-.231.232c-.119.07-.279.105-.481.105H3.001V3Zm.49.386v.524h.449a.539.539 0 0 0 .231-.037c.091-.044.137-.12.137-.228 0-.091-.029-.157-.086-.198-.057-.04-.151-.061-.282-.061h-.449Zm0 .86v.617h.497c.143 0 .243-.02.3-.06.076-.054.114-.137.114-.248 0-.132-.051-.223-.154-.271a.76.76 0 0 0-.284-.038h-.473ZM5.637 3v.401h-.446V3h.446Zm0 .572v1.677h-.446V3.572h.446ZM6.417 3.574v.235a.633.633 0 0 1 .546-.287c.137 0 .254.035.349.105a.432.432 0 0 1 .159.21c.03.085.045.204.045.358V5.25h-.444v-.963a.722.722 0 0 0-.028-.237.21.21 0 0 0-.089-.104.356.356 0 0 0-.349.007.312.312 0 0 0-.123.134.738.738 0 0 0-.045.297v.864h-.446V3.574h.425ZM9.379 5.249h-.455a.591.591 0 0 1-.029-.168.72.72 0 0 1-.54.214c-.172 0-.307-.04-.403-.12a.474.474 0 0 1-.166-.386c0-.21.095-.356.285-.437.077-.033.218-.063.425-.091.177-.024.288-.046.331-.068.043-.022.065-.067.065-.133 0-.147-.097-.22-.292-.22-.104 0-.179.018-.227.055-.048.037-.08.101-.095.192h-.422a.549.549 0 0 1 .211-.422c.127-.095.308-.142.543-.142.259 0 .451.053.575.158.058.05.096.102.115.159a.915.915 0 0 1 .028.268l-.005.338-.002.347c0 .122.004.211.011.268a.89.89 0 0 0 .047.188Zm-.49-.811a.882.882 0 0 1-.314.085.734.734 0 0 0-.231.063c-.067.036-.1.097-.1.183 0 .07.022.124.066.163a.27.27 0 0 0 .185.058.403.403 0 0 0 .318-.138.258.258 0 0 0 .059-.099.46.46 0 0 0 .016-.136v-.179h.001ZM10.716 3.541v.432a1.038 1.038 0 0 0-.174-.02.391.391 0 0 0-.366.209c-.044.078-.066.208-.066.391v.695h-.446v-1.68h.425v.306c.121-.228.297-.341.528-.341.027.001.061.003.099.008ZM11.373 3v.401h-.446V3h.446Zm0 .572v1.677h-.446V3.572h.446ZM12.534 3.523a.79.79 0 0 1 .598.243c.153.16.229.373.229.64 0 .276-.082.496-.245.66a.807.807 0 0 1-.597.229c-.261 0-.47-.085-.624-.255-.148-.162-.221-.372-.221-.631 0-.254.072-.461.215-.62.159-.177.374-.266.645-.266Zm-.023.348a.33.33 0 0 0-.281.143.652.652 0 0 0-.106.395c0 .173.035.306.105.398.072.093.17.14.294.14a.332.332 0 0 0 .275-.128c.077-.094.115-.231.115-.411 0-.168-.034-.299-.102-.392a.35.35 0 0 0-.3-.145Z" fill="#fff"/></g><defs><clipPath id="a"><path fill="#fff" d="M0 0h24v24H0z"/></clipPath></defs></svg>
